teeny/solid/mood-tongue.svg

<svg width="15" height="15" viewBox="0 0 15 15" fill="none" xmlns="http://www.w3.org/2000/svg">
<path d="M6 10.5V9H9V10.5C9 11.3284 8.32843 12 7.5 12C6.67157 12 6 11.3284 6 10.5Z" fill="black"/>
<path fill-rule="evenodd" clip-rule="evenodd" d="M0 7.5C0 3.35786 3.35786 0 7.5 0C11.6421 0 15 3.35786 15 7.5C15 11.6421 11.6421 15 7.5 15C3.35786 15 0 11.6421 0 7.5ZM5 6H4V5H5V6ZM11 6H10V5H11V6ZM4 9H5V10.5C5 11.8807 6.11929 13 7.5 13C8.88071 13 10 11.8807 10 10.5V9H11V8H4V9Z" fill="black"/>
</svg>

<svg viewBox="0 0 15 15" xmlns="http://www.w3.org/2000/svg"><g><path d="M6 10.5V9h3v1.5c0 .82-.68 1.5-1.5 1.5 -.83 0-1.5-.68-1.5-1.5Z"/><path fill-rule="evenodd" d="M0 7.5C0 3.35 3.35 0 7.5 0 11.64 0 15 3.35 15 7.5c0 4.14-3.36 7.5-7.5 7.5C3.35 15 0 11.64 0 7.5ZM5 6H4V5h1v1Zm6 0h-1V5h1v1ZM4 9h1v1.5C5 11.88 6.11 13 7.5 13c1.38 0 2.5-1.12 2.5-2.5V9h1V8H4v1Z"/></g></svg>
